X:1
T:Title
%%score { ( 1 3 ) | ( 2 4 ) }
L:1/8
M:4/4
K:Eb
V:1 treble nm="Grand Piano"
V:3 treble 
V:2 bass 
V:4 bass 
V:1
 z4 z2[Q:1/4=100] [EG][FA] | [GB]>[GB] [Ac][GB] [GB][B,EG][A,EF][G,E] | %2
[M:3/4] [A,CE]>[A,CF][K:bass] [A,CE][E,A,C][K:treble] [A,CE]2 |[M:1/4] EF | %4
[M:4/4] G>_G =G[FA] [GB][Ac][GB]G |[M:7/8] F>Bd c [B,DB]3 |[M:1/4] GA |[M:4/4] B6 z2 | e6 z2 | %9
 [DF]2 [DF][EG] [DFA][DFA] [DAc]2 |[M:3/4] [EGB]6 |[M:1/4] GA |[M:4/4] B6 z2 | c6 z2 | %14
 B B3 G2 [DF]2 |[M:3/4] E6 |] %16
V:2
 z4 z2 [E,B,][E,B,] | [E,E]>[E,E] [E,E][E,E] [E,E]E,E,E, |[M:3/4] A,,>G,, A,,A,, A,,2 | %3
[M:1/4] [E,G,][E,A,E] |[M:4/4] [E,B,E]>[E,=A,E] [E,B,E][E,B,] [E,E][E,E][E,E][E,B,E] | %5
[M:7/8] [F,B,D]>[F,B,D][F,B,F] [F,=A,E] B,,3 |[M:1/4][K:treble] EF | %7
[M:4/4] G6[K:bass][K:treble] z2 | G6[K:bass] z2 | [B,,B,]2 [B,,B,][B,,B,] B,,B,, B,,2 | %10
[M:3/4] E,6 |[M:1/4][K:treble] EF |[M:4/4] G6[K:bass][K:treble] z2 | A6 z2 | %14
 [B,EG] [B,EG]3[K:bass] [B,E]2 [B,,A,]2 |[M:3/4] [E,G,]6 |] %16
V:3
 x8 | x8 |[M:3/4] x2[K:bass] x2[K:treble] x2 |[M:1/4] x2 |[M:4/4] x8 |[M:7/8] x7 |[M:1/4] x2 | %7
[M:4/4] z2 EE E2 cd | z2 B,B, B,2 GG | x8 |[M:3/4] x6 |[M:1/4] x2 |[M:4/4] z2 EE E2 ed | %13
 z2 EE E2 cc | x8 |[M:3/4] x6 |] %16
V:4
 x8 | x8 |[M:3/4] x6 |[M:1/4] x2 |[M:4/4] x8 |[M:7/8] x7 |[M:1/4][K:treble] x2 | %7
[M:4/4] z2[K:bass] E,E, E,2[K:treble] AA | z2[K:bass] E,E, E,2 [E,B,E][E,B,E] | x8 |[M:3/4] x6 | %11
[M:1/4][K:treble] x2 |[M:4/4] z2[K:bass] E,E, E,2[K:treble] GB | z2 A,A, A,2 [A,EA][A,EA] | %14
 x4[K:bass] x4 |[M:3/4] x6 |] %16

